X: 1
T: Peaceful River
M: 4/4
L: 1/8
R: reel
K: Emin
B2e2d2 BG|AB/c/ BG E2EF|G2c2B2 AG|Ac B^de2e=d|
B2e2d2 BG|AB/c/ BA G2G2|A2c2B2 AG|AB GFE2E2|
g2 ed Be e2|fd df g2dB|e2cA BA GA|Bc BA B2B2|
g2 fe Be e2|fd df g2dB|e2cA BA GA|B2B2E4|
